X: 1
T: Nyanyanyanyanyanyanya!  (G)
T: Nyan Cat Theme
C: ?
R: reel
Z: 2011 John Chambers <jc:trillian.mit.edu>
F: http://junket.tumblr.com/post/4776023022/heres-the-nyan-cat-sheet-music
M: 4/4
L: 1/16
K: G
%"Intro"[|]cdez adcd | eac'd' c'gaz | ezcd eza2 | bgab d'c'd'b ||
"A"|:\
d2e2 ^AB2=A | =BAG2 G2A2 | =B2BA GA=Bd | eBdA BGAG |
B2d2 eBdA | BG^AB =B=AGA | =B2GA =BdA=B |1 AGA2 G2A2 :|2 AGA2 G2G2 ||
"B"|:\
G2DE G2DE | GABG cBcd | G2G2 DEGD | cBAG CB,CD |
G2DE G2DE | GGAB GDED | G2GF GDEG |1 cBcd G2F2 :|2 cBcd G2A2 |]

